actions/symbolic/document-save-as-symbolic.svg

<?xml version="1.0" encoding="UTF-8" standalone="no"?>
<svg
   height="16"
   width="16"
   version="1.1"
   id="svg8"
   sodipodi:docname="document-save-as-symbolic.svg"
   inkscape:version="1.2.2 (b0a8486541, 2022-12-01)"
   xmlns:inkscape="http://www.inkscape.org/namespaces/inkscape"
   xmlns:sodipodi="http://sodipodi.sourceforge.net/DTD/sodipodi-0.dtd"
   xmlns="http://www.w3.org/2000/svg"
   xmlns:svg="http://www.w3.org/2000/svg">
  <defs
     id="defs12" />
  <sodipodi:namedview
     id="namedview10"
     pagecolor="#ffffff"
     bordercolor="#000000"
     borderopacity="0.25"
     inkscape:showpageshadow="2"
     inkscape:pageopacity="0.0"
     inkscape:pagecheckerboard="0"
     inkscape:deskcolor="#d1d1d1"
     showgrid="false"
     inkscape:zoom="53.125"
     inkscape:cx="4.2823529"
     inkscape:cy="6.0517647"
     inkscape:window-width="1390"
     inkscape:window-height="980"
     inkscape:window-x="579"
     inkscape:window-y="54"
     inkscape:window-maximized="0"
     inkscape:current-layer="svg8" />
  <path
     id="path2"
     style="line-height:normal;font-variant-ligatures:normal;font-variant-position:normal;font-variant-caps:normal;font-variant-numeric:normal;font-variant-alternates:normal;font-feature-settings:normal;text-indent:0;text-align:start;text-decoration-line:none;text-decoration-style:solid;text-decoration-color:#000000;text-transform:none;text-orientation:mixed;shape-padding:0;isolation:auto;mix-blend-mode:normal;fill:#555761"
     d="M 3,2 C 2.632629,2.0071412 2.2962906,2.2076077 2.1152344,2.5273438 1.9932346,2.7723432 2,3 2,3 2,3 1.7723432,2.9932346 1.5273438,3.1152344 1.2076077,3.2962906 1.0071412,3.632629 1,4 v 6 H 2 V 4 H 3 V 3 H 5 6 C 5.9932624,2.6330314 5.7935931,2.2967854 5.4746094,2.1152344 5.2296098,1.9932346 5,2 5,2 Z m 7,1 v 1 h 4 v 6 h 1 V 4 C 14.993262,3.6330313 14.793593,3.2967853 14.474609,3.1152344 14.229611,2.9932346 14,3 14,3 Z"
     sodipodi:nodetypes="cccccccccccccccccccccccc" />
  <path
     id="path4"
     style="line-height:normal;font-variant-ligatures:normal;font-variant-position:normal;font-variant-caps:normal;font-variant-numeric:normal;font-variant-alternates:normal;font-feature-settings:normal;text-indent:0;text-align:start;text-decoration-line:none;text-decoration-style:solid;text-decoration-color:#000000;text-transform:none;text-orientation:mixed;shape-padding:0;isolation:auto;mix-blend-mode:normal;fill:#555761"
     d="m 1,8 v 4.5 c 0,0 -0.0102653,0.352658 0.1777344,0.722656 C 1.361734,13.591656 1.8330014,14 2.5,14 h 11 c 0.666998,0 1.138266,-0.408344 1.322266,-0.777344 C 15.007264,12.852658 15,12.5 15,12.5 V 8 h -2.630859 l -2.8828129,3.353516 -0.033203,0.03516 c -0.7858012,0.805068 -2.1204488,0.805068 -2.90625,0 L 6.5136719,11.353516 3.6328125,8 Z"
     sodipodi:nodetypes="cccsscccccccccc" />
  <path
     style="fill:#555761;stroke:none;stroke-width:1;stroke-linecap:round;-inkscape-stroke:none;stop-color:#000000"
     d="m 11.499391,6.5664227 c -0.0026,0.09083 -0.03437,0.1774624 -0.09089,0.2489525 L 8.3796054,10.340547 c -0.207516,0.212604 -0.551225,0.212604 -0.758741,0 L 4.5920094,6.8153752 c -0.232681,-0.2890513 0.0061,-0.803422 0.37937,-0.8154657 h 2.028034 V 1.5018251 c 2.91e-4,-0.030223 0.0026,-0.059279 0.0079,-0.088212 C 7.0447334,1.2110906 7.2021084,1.0454111 7.4103954,1 h 1.083728 c 0.265054,0 0.505828,0.2398722 0.505828,0.501825 V 5.9999097 H 11.02913 c 0.280227,0.00803 0.483412,0.2985388 0.470261,0.566513 z"
     id="path30069"
     sodipodi:nodetypes="ccccccccscssccc" />
</svg>

<svg
        xmlns='http://www.w3.org/2000/svg'
        xmlns:svg='http://www.w3.org/2000/svg'
        id='svg8'
        width='16'
        height='16'>
  <path
          id='path2'
          fill='url(#gpa:foreground) #555761'
          fill-opacity='1'
          fill-rule='nonzero'
          d='M 3 2 C 2.63263 2.00714, 2.29629 2.20761, 2.11523 2.52734 C 1.99323 2.77234, 2 3, 2 3 C 2 3, 1.77234 2.99323, 1.52734 3.11523 C 1.20761 3.29629, 1.00714 3.63263, 1 4 L 1 10 L 2 10 L 2 4 L 3 4 L 3 3 L 5 3 L 6 3 C 5.99326 2.63303, 5.79359 2.29679, 5.47461 2.11523 C 5.22961 1.99323, 5 2, 5 2 Z M 10 3 L 10 4 L 14 4 L 14 10 L 15 10 L 15 4 C 14.9933 3.63303, 14.7936 3.29679, 14.4746 3.11523 C 14.2296 2.99323, 14 3, 14 3 Z'
          class="foreground"
          style='mix-blend-mode: normal; isolation: auto'>
  </path>
  <path
          id='path4'
          fill='url(#gpa:foreground) #555761'
          fill-opacity='1'
          fill-rule='nonzero'
          d='M 1 8 L 1 12.5 C 1 12.5, 0.989735 12.8527, 1.17773 13.2227 C 1.36173 13.5917, 1.833 14, 2.5 14 L 13.5 14 C 14.167 14, 14.6383 13.5917, 14.8223 13.2227 C 15.0073 12.8527, 15 12.5, 15 12.5 L 15 8 L 12.3691 8 L 9.48633 11.3535 L 9.45312 11.3887 C 8.66732 12.1937, 7.33268 12.1937, 6.54688 11.3887 L 6.51367 11.3535 L 3.63281 8 Z'
          class="foreground"
          style='mix-blend-mode: normal; isolation: auto'>
  </path>
  <path
          id='path30069'
          fill='url(#gpa:foreground) #555761'
          fill-opacity='1'
          fill-rule='nonzero'
          stroke='none'
          stroke-width='1'
          stroke-linecap='round'
          d='M 11.4994 6.56642 C 11.4968 6.65725, 11.465 6.74389, 11.4085 6.81538 L 8.37961 10.3405 C 8.17209 10.5532, 7.82838 10.5532, 7.62086 10.3405 L 4.59201 6.81538 C 4.35933 6.52632, 4.59811 6.01195, 4.97138 5.99991 L 6.99941 5.99991 L 6.99941 1.50183 C 6.9997 1.4716, 7.00201 1.44255, 7.00731 1.41361 C 7.04473 1.21109, 7.20211 1.04541, 7.4104 1 L 8.49412 1 C 8.75918 1, 8.99995 1.23987, 8.99995 1.50182 L 8.99995 5.99991 L 11.0291 5.99991 C 11.3094 6.00794, 11.5125 6.29845, 11.4994 6.56642 Z'
          class="foreground">
  </path>
</svg>
